src/16/actions/kmouth-phresebook-new.svg

<svg xmlns="http://www.w3.org/2000/svg" width="16" height="16" viewBox="0 0 16 16">
 <defs>
  <style id="current-color-scheme" type="text/css">
   .ColorScheme-Text { color:#565656; } .ColorScheme-Highlight { color:#5294e2; }
  </style>
 </defs>
 <path style="fill:currentColor" class="ColorScheme-Text" d="M 5.40625 6 C 5.40625 6 4 6.0003906 4 7.4003906 L 4 11.599609 C 4 12.374609 4.6363344 13 5.4277344 13 L 9 13 L 10.5 15 L 12 13 L 12.572266 13 C 12.572266 13 14 12.999609 14 11.599609 L 14 7.4003906 C 14 6.0003906 12.572266 6 12.572266 6 L 5.40625 6 z M 9 7 L 10 7 L 10 9 L 12 9 L 12 10 L 10 10 L 10 12 L 9 12 L 9 10 L 7 10 L 7 9 L 9 9 L 9 7 z"/>
 <path style="fill:currentColor;opacity:0.3" class="ColorScheme-Text" d="M 3.40625 2 C 3.40625 2 2 2.0003906 2 3.4003906 L 2 7.5996094 C 2 8.2278094 2.4207 8.7512875 3 8.9296875 L 3 6.4003906 C 3 5.0003906 4.40625 5 4.40625 5 L 11.572266 5 C 11.572266 5 11.768 5.0235375 12 5.0859375 L 12 3.4003906 C 12 2.0003906 10.572266 2 10.572266 2 L 3.40625 2 z"/>
</svg>

<svg xmlns="http://www.w3.org/2000/svg" width="16" height="16"><defs><style id="current-color-scheme" type="text/css">.ColorScheme-Text{color:#565656}</style></defs><path class="ColorScheme-Text" d="M5.406 6S4 6 4 7.4v4.2c0 .775.636 1.4 1.428 1.4H9l1.5 2 1.5-2h.572S14 13 14 11.6V7.4C14 6 12.572 6 12.572 6H5.406zM9 7h1v2h2v1h-2v2H9v-2H7V9h2V7z" fill="currentColor"/><path class="ColorScheme-Text" d="M3.406 2S2 2 2 3.4v4.2c0 .628.42 1.151 1 1.33V6.4C3 5 4.406 5 4.406 5h7.166s.196.024.428.086V3.4C12 2 10.572 2 10.572 2H3.406z" fill="currentColor" opacity=".3"/></svg>
